X:1
T:Arthur's Seat
T:Arthur's Seat
T:William Marshall
C:William Marshall
L:1/8
Q:1/8=232
M:4/4
K:D
V:1 treble 
V:1
|: DF Ad fe df | ef gf e/e/e e2 | DF Ad fe dc | dB AF D/D/D D2 :: BA dA BA GF | GB AF E/E/E E2 | %6
 BA dA BA GF | GB AF D/D/D D2 :: df Af eg Ag | fg af e/e/e e2 | df Af eg Ag | fg af d/d/d d2 :: %12
 dc BA BA GF | GB AF E/E/E E2 | dc BA BA GF | GB AF D/D/D D2 :| %16

